src/assets/icons/CarouselLivingRoom.svg

<svg width="60" height="60" viewBox="0 0 60 60" fill="none" xmlns="http://www.w3.org/2000/svg">
<g clip-path="url(#clip0)">
<path d="M48.75 3.15039H31.172C30.5249 3.15039 30.0001 3.67288 30.0001 4.31719C30.0001 4.9615 30.5249 5.48399 31.172 5.48399H47.5781V13.146C47.5781 13.7903 48.1029 14.3128 48.75 14.3128C49.3971 14.3128 49.9219 13.7903 49.9219 13.146V4.31719C49.9219 3.67288 49.3971 3.15039 48.75 3.15039Z" fill="white"/>
<path d="M27.3128 3.49226C27.0949 3.27512 26.7926 3.15039 26.4844 3.15039C26.1762 3.15039 25.8738 3.27512 25.6559 3.49226C25.4379 3.70941 25.3125 4.01032 25.3125 4.31719C25.3125 4.62406 25.4378 4.9251 25.6559 5.142C25.8738 5.35915 26.1762 5.48399 26.4844 5.48399C26.7926 5.48399 27.0949 5.35915 27.3128 5.142C27.5309 4.9251 27.6562 4.62406 27.6562 4.31719C27.6562 4.01032 27.5309 3.70929 27.3128 3.49226Z" fill="white"/>
<path d="M44.0625 7.81763H15.9375C15.2904 7.81763 14.7656 8.34012 14.7656 8.98443V18.3188C14.7656 18.9632 15.2904 19.4856 15.9375 19.4856H44.0625C44.7096 19.4856 45.2344 18.9632 45.2344 18.3188V8.98443C45.2344 8.34012 44.7096 7.81763 44.0625 7.81763ZM42.8906 17.152H17.1094V10.1512H42.8906V17.152Z" fill="white"/>
<path d="M58.8281 49.5819H53.6719V27.8866H58.8281C59.2113 27.8866 59.5703 27.7 59.7894 27.3871C60.0086 27.0741 60.0602 26.6743 59.9277 26.3162L56.6302 17.4096C56.4604 16.951 56.0215 16.6464 55.5306 16.6464H49.4303C48.9395 16.6464 48.5005 16.951 48.3307 17.4096L46.6983 21.8192H12.4219V5.48399H21.1523C21.7995 5.48399 22.3242 4.9615 22.3242 4.31719C22.3242 3.67288 21.7995 3.15039 21.1523 3.15039H11.25C10.6029 3.15039 10.0781 3.67288 10.0781 4.31719V20.8741C9.17051 19.8634 7.85215 19.2258 6.3866 19.2258C3.65566 19.2258 1.43391 21.4379 1.43391 24.1571C1.43391 24.8566 1.57852 25.5337 1.85766 26.1579C0.680039 27.3398 0 28.9508 0 30.6386C0 33.7463 2.25117 36.3387 5.21473 36.8884V38.6212H1.17188C0.524766 38.6212 0 39.1437 0 39.788V55.4231C0 56.0674 0.524766 56.5899 1.17188 56.5899H11.6013C11.9552 56.5899 12.2716 56.4331 12.4866 56.1862C12.9955 56.4438 13.5705 56.5899 14.1795 56.5899H45.8205C45.982 56.5899 46.1408 56.5786 46.297 56.5588C46.3825 56.5785 46.4711 56.5899 46.5625 56.5899H58.8281C59.4752 56.5899 60 56.0674 60 55.4231V50.7486C60 50.1043 59.4752 49.5819 58.8281 49.5819ZM50.2473 18.98H54.7136L57.1472 25.553H52.5566C52.5377 25.5521 52.5191 25.5502 52.5 25.5502C52.4809 25.5502 52.4623 25.5522 52.4434 25.553H47.8138L50.2473 18.98ZM5.21461 30.4506V34.4909C3.55523 33.9894 2.34375 32.4525 2.34375 30.6386C2.34375 29.3425 2.97809 28.1175 4.04051 27.3617C4.29715 27.1792 4.46906 26.9012 4.51723 26.5909C4.56551 26.2804 4.48605 25.9637 4.2968 25.7125C3.95719 25.2613 3.77754 24.7234 3.77754 24.1571C3.77754 22.7248 4.94789 21.5594 6.38648 21.5594C7.82508 21.5594 8.99543 22.7247 8.99543 24.1571C8.99543 24.7235 8.8159 25.2613 8.47617 25.7126C8.28703 25.9638 8.20758 26.2805 8.25586 26.5909C8.30402 26.9012 8.47594 27.179 8.73258 27.3617C9.795 28.1175 10.4293 29.3425 10.4293 30.6386C10.4293 32.4525 9.21785 33.9894 7.55836 34.4909V30.4506C7.55836 29.8063 7.03359 29.2838 6.38648 29.2838C5.73938 29.2838 5.21461 29.8063 5.21461 30.4506ZM10.4295 54.2563H2.34375V40.9548H10.4295V54.2563ZM47.2268 52.8562C47.2268 53.6282 46.596 54.2563 45.8205 54.2563H14.1795C13.404 54.2563 12.7732 53.6282 12.7732 52.8562V45.3886C12.7732 44.2306 13.7195 43.2884 14.8826 43.2884C16.0457 43.2884 16.992 44.2306 16.992 45.3886V49.1224C16.992 49.7667 17.5167 50.2892 18.1638 50.2892H41.8362C42.4833 50.2892 43.008 49.7667 43.008 49.1224V45.3886C43.008 44.2306 43.9543 43.2884 45.1174 43.2884C46.2805 43.2884 47.2268 44.2306 47.2268 45.3886V52.8562ZM19.3295 45.1553H40.6705C40.6664 45.2326 40.6643 45.3103 40.6643 45.3886V47.9556H19.3357V45.3886C19.3357 45.3103 19.3335 45.2326 19.3295 45.1553ZM18.51 42.8217C17.9211 41.9992 17.0582 41.3847 16.0545 41.1117V35.0803C16.0545 33.7515 17.1402 32.6706 18.4747 32.6706H41.6384C42.9729 32.6706 44.0585 33.7516 44.0585 35.0803V41.0825C43.0066 41.3389 42.1008 41.9684 41.49 42.8217H18.51ZM46.4024 41.1437V35.0802C46.4024 32.4647 44.2654 30.3369 41.6385 30.3369H18.4747C15.8479 30.3369 13.7107 32.4647 13.7107 35.0802V41.1116C13.3816 41.2011 13.0673 41.3265 12.7732 41.4847V39.788C12.7732 39.1437 12.2484 38.6212 11.6013 38.6212H7.55848V36.8884C10.522 36.3387 12.7732 33.7463 12.7732 30.6386C12.7732 28.9508 12.0932 27.3399 10.9155 26.1577C11.1946 25.5336 11.3392 24.8566 11.3392 24.1571C11.3392 24.1557 11.3391 24.1543 11.3391 24.1529H45.8341L45.0332 26.3163C44.9006 26.6743 44.9523 27.0742 45.1714 27.3872C45.3906 27.7003 45.7496 27.8867 46.1327 27.8867H51.3281V49.582H49.5705V45.3886C49.5705 43.3885 48.2332 41.6942 46.4024 41.1437ZM57.6562 54.2563H49.2959C49.4723 53.8237 49.5705 53.3512 49.5705 52.8562V51.9154H57.6562V54.2563Z" fill="white"/>
<path d="M34.5775 35.0042H29.265C28.6179 35.0042 28.0931 35.5266 28.0931 36.171C28.0931 36.8153 28.6179 37.3378 29.265 37.3378H34.5775C35.2246 37.3378 35.7494 36.8153 35.7494 36.171C35.7494 35.5266 35.2246 35.0042 34.5775 35.0042Z" fill="white"/>
<path d="M25.9852 35.346C25.7672 35.1289 25.4649 35.0042 25.1555 35.0042C24.8473 35.0042 24.5461 35.1289 24.327 35.346C24.109 35.563 23.9836 35.8641 23.9836 36.171C23.9836 36.4778 24.1089 36.7789 24.327 36.9958C24.5461 37.2128 24.8473 37.3378 25.1555 37.3378C25.4649 37.3378 25.7672 37.2129 25.9852 36.9958C26.2031 36.7789 26.3274 36.4778 26.3274 36.171C26.3274 35.8641 26.2031 35.563 25.9852 35.346Z" fill="white"/>
</g>
<defs>
<clipPath id="clip0">
<rect width="60" height="59.7403" fill="white"/>
</clipPath>
</defs>
</svg>

<svg xmlns="http://www.w3.org/2000/svg" width="60" height="60" fill="none"><g fill="#fff" clip-path="url(#a)"><path d="M48.75 3.15H31.172A1.17 1.17 0 0 0 30 4.317a1.17 1.17 0 0 0 1.172 1.167h16.406v7.662a1.17 1.17 0 0 0 1.172 1.167 1.17 1.17 0 0 0 1.172-1.167V4.317A1.17 1.17 0 0 0 48.75 3.15ZM27.313 3.492a1.182 1.182 0 0 0-.829-.342 1.173 1.173 0 0 0-1.172 1.167 1.172 1.172 0 0 0 2.344 0c0-.307-.125-.608-.343-.825Z"/><path d="M44.063 7.818H15.936a1.17 1.17 0 0 0-1.171 1.166v9.335a1.17 1.17 0 0 0 1.171 1.167h28.126a1.17 1.17 0 0 0 1.171-1.167V8.984a1.17 1.17 0 0 0-1.172-1.166Zm-1.172 9.334H17.109v-7h25.782v7Z"/><path d="M58.828 49.582h-5.156V27.887h5.156c.383 0 .742-.187.961-.5.22-.313.271-.713.139-1.07L56.63 17.41a1.172 1.172 0 0 0-1.1-.764h-6.1c-.49 0-.93.305-1.1.764l-1.632 4.41H12.422V5.483h8.73a1.17 1.17 0 0 0 1.172-1.167 1.17 1.17 0 0 0-1.172-1.167H11.25a1.17 1.17 0 0 0-1.172 1.167v16.557a4.95 4.95 0 0 0-3.691-1.648c-2.731 0-4.953 2.212-4.953 4.931 0 .7.145 1.377.424 2A6.36 6.36 0 0 0 0 30.64c0 3.107 2.251 5.7 5.215 6.25v1.732H1.172A1.17 1.17 0 0 0 0 39.788v15.635a1.17 1.17 0 0 0 1.172 1.167h10.43c.353 0 .67-.157.885-.404a3.738 3.738 0 0 0 1.693.404h31.64c.162 0 .32-.011.477-.031.086.02.174.03.266.03h12.265A1.17 1.17 0 0 0 60 55.424V50.75a1.17 1.17 0 0 0-1.172-1.167Zm-8.58-30.602h4.466l2.433 6.573h-4.59c-.02 0-.038-.003-.057-.003-.02 0-.038.002-.057.003h-4.63l2.434-6.573ZM5.214 30.45v4.04a4.034 4.034 0 0 1-2.871-3.851c0-1.296.634-2.521 1.697-3.277a1.166 1.166 0 0 0 .256-1.65c-.34-.45-.52-.989-.52-1.555a2.606 2.606 0 0 1 2.61-2.598 2.606 2.606 0 0 1 2.608 2.598c0 .567-.18 1.104-.519 1.556a1.163 1.163 0 0 0 .257 1.649 4.032 4.032 0 0 1 1.696 3.277 4.034 4.034 0 0 1-2.87 3.852v-4.04a1.17 1.17 0 0 0-1.173-1.167 1.17 1.17 0 0 0-1.171 1.167Zm5.215 23.806H2.344V40.955h8.086v13.301Zm36.797-1.4c0 .772-.631 1.4-1.406 1.4H14.18a1.405 1.405 0 0 1-1.407-1.4V45.39c0-1.158.947-2.1 2.11-2.1 1.163 0 2.109.942 2.109 2.1v3.733a1.17 1.17 0 0 0 1.172 1.167h23.672a1.17 1.17 0 0 0 1.172-1.167V45.39c0-1.158.946-2.1 2.11-2.1 1.163 0 2.109.942 2.109 2.1v7.467Zm-27.897-7.7h21.34a4.402 4.402 0 0 0-.006.233v2.567H19.336v-2.567c0-.079-.002-.156-.006-.234Zm-.82-2.334a4.467 4.467 0 0 0-2.456-1.71V35.08a2.418 2.418 0 0 1 2.42-2.41h23.164a2.418 2.418 0 0 1 2.42 2.41v6.003a4.464 4.464 0 0 0-2.568 1.739H18.51Zm27.892-1.678V35.08c0-2.615-2.137-4.743-4.764-4.743H18.476c-2.627 0-4.764 2.128-4.764 4.743v6.032c-.33.09-.644.215-.938.373v-1.697a1.17 1.17 0 0 0-1.172-1.167H7.558v-1.733c2.964-.55 5.215-3.142 5.215-6.25a6.36 6.36 0 0 0-1.857-4.48c.279-.624.423-1.301.423-2v-.005h34.495l-.8 2.163c-.133.358-.082.758.137 1.071.22.313.579.5.962.5h5.195v21.695H49.57v-4.193c0-2-1.337-3.695-3.168-4.245Zm11.254 13.112h-8.36a3.7 3.7 0 0 0 .275-1.4v-.94h8.085v2.34Z"/><path d="M34.578 35.004h-5.313a1.17 1.17 0 0 0-1.172 1.167 1.17 1.17 0 0 0 1.172 1.167h5.313a1.17 1.17 0 0 0 1.171-1.167 1.17 1.17 0 0 0-1.172-1.167ZM25.985 35.346a1.184 1.184 0 0 0-.83-.342 1.173 1.173 0 0 0-1.172 1.167 1.172 1.172 0 0 0 2.344 0c0-.307-.124-.608-.342-.825Z"/></g><defs><clipPath id="a"><path fill="#fff" d="M0 0h60v59.74H0z"/></clipPath></defs></svg>
